assets/azuremachinelearningstudioworkspaces/original.svg

<svg height="18" viewBox="0 0 18 18" width="18" xmlns="http://www.w3.org/2000/svg" xmlns:xlink="http://www.w3.org/1999/xlink"><linearGradient id="a" gradientUnits="userSpaceOnUse" x1="5.71" x2="5.82" y1="7.1" y2="17.48"><stop offset="0" stop-color="#32d4f5"/><stop offset=".32" stop-color="#31d1f3"/><stop offset=".53" stop-color="#2ec9eb"/><stop offset=".7" stop-color="#29bade"/><stop offset=".86" stop-color="#22a5cb"/><stop offset="1" stop-color="#198ab3"/></linearGradient><path d="m6 .6h11.12a.37.37 0 0 1 .38.34v8.59a.36.36 0 0 1 -.38.34h-11.12a.36.36 0 0 1 -.38-.34v-8.59a.37.37 0 0 1 .38-.34" fill="#e6e6e6"/><path d="m5.94.6h11.2a.35.35 0 0 1 .36.32v1.3h-11.92v-1.3a.35.35 0 0 1 .36-.32" fill="#5ea0ef"/><path d="m5.58 2.22h3.98v3.83h-3.98z" fill="#83b9f9"/><path d="m9.54 2.22h3.98v3.83h-3.98z" fill="#0078d4"/><path d="m13.52 2.22h3.98v3.83h-3.98z" fill="#83b9f9"/><path d="m16.93 9.91h-3.41v-3.87h4v3.26a.57.57 0 0 1 -.59.61" fill="#0078d4"/><path d="m13.55 9.87h-3.98v-3.83h3.98z" fill="#83b9f9"/><path d="m9.57 9.87h-3.98v-3.83h3.98z" fill="#0078d4"/><path d="m10.73 17.4h-9.84c-.31 0-.5-.5-.32-.76l3.39-5a.34.34 0 0 0 .04-.17v-3.27a.2.2 0 0 0 -.16-.2h-.19a.39.39 0 0 1 -.39-.39v-.17a.39.39 0 0 1 .39-.38h4.35a.38.38 0 0 1 .39.38v.18a.38.38 0 0 1 -.39.38h-.21a.2.2 0 0 0 -.2.19v3.28a.4.4 0 0 0 .07.22l3.4 4.94c.17.27-.01.77-.33.77" fill="url(#a)"/><path d="m2.19 16 2.46-3.59a.86.86 0 0 0 .16-.51v-1.5a.29.29 0 0 1 .29-.29h1.4a.28.28 0 0 1 .28.29v1.6a.6.6 0 0 0 .11.34l2.52 3.66a.21.21 0 0 1 -.18.34h-6.87a.21.21 0 0 1 -.17-.34" fill="#fff"/></svg>

<svg xmlns="http://www.w3.org/2000/svg" id="ab6915f8-be54-4d6f-932a-7f429e75983a" width="18" height="18" viewBox="0 0 18 18"><defs><linearGradient id="b8ef1ebf-419d-4097-a9bc-e2fbb68d9c3b" x1="5.71" x2="5.82" y1="7.1" y2="17.48" gradientUnits="userSpaceOnUse"><stop offset="0" stop-color="#32d4f5"/><stop offset=".32" stop-color="#31d1f3"/><stop offset=".53" stop-color="#2ec9eb"/><stop offset=".7" stop-color="#29bade"/><stop offset=".86" stop-color="#22a5cb"/><stop offset="1" stop-color="#198ab3"/><stop offset="1" stop-color="#198ab3"/></linearGradient></defs><title>Icon-machinelearning-167</title><path fill="#e6e6e6" d="M6 .6h11.12a.37.37 0 0 1 .38.34v8.59a.36.36 0 0 1-.38.34H6a.36.36 0 0 1-.38-.34V.94A.37.37 0 0 1 6 .6"/><path fill="#5ea0ef" d="M5.94.6h11.2a.35.35 0 0 1 .36.32v1.3H5.58V.92A.35.35 0 0 1 5.94.6"/><path fill="#83b9f9" d="M5.58 2.22h3.98v3.83H5.58z"/><path fill="#0078d4" d="M9.54 2.22h3.98v3.83H9.54z"/><path fill="#83b9f9" d="M13.52 2.22h3.98v3.83h-3.98z"/><path fill="#0078d4" d="M16.93 9.91h-3.41V6.04h4V9.3a.57.57 0 0 1-.59.61"/><path fill="#83b9f9" d="M13.55 9.87H9.57V6.04h3.98z"/><path fill="#0078d4" d="M9.57 9.87H5.59V6.04h3.98z"/><path fill="url(#b8ef1ebf-419d-4097-a9bc-e2fbb68d9c3b)" d="M10.73 17.4H.89c-.31 0-.5-.5-.32-.76l3.39-5a.34.34 0 0 0 .04-.17V8.2a.2.2 0 0 0-.16-.2h-.19a.39.39 0 0 1-.39-.39v-.17a.39.39 0 0 1 .39-.38H8a.38.38 0 0 1 .39.38v.18A.38.38 0 0 1 8 8h-.21a.2.2 0 0 0-.2.19v3.28a.4.4 0 0 0 .07.22l3.4 4.94c.17.27-.01.77-.33.77"/><path fill="#fff" d="m2.19 16 2.46-3.59a.86.86 0 0 0 .16-.51v-1.5a.29.29 0 0 1 .29-.29h1.4a.28.28 0 0 1 .28.29V12a.6.6 0 0 0 .11.34L9.41 16a.21.21 0 0 1-.18.34H2.36a.21.21 0 0 1-.17-.34"/></svg>
